X: 523
T: Zai liushu
L: 1/8
M: 4/4
K: F
c2A2f2g2 [I:setbarnb 1]| 
d c A cG4 | 
G G/ F/ D FG4 | 
A cG2D D/ F/G2 | 
f2d fc2A2 | 
G2A FC4 | 
G GC2G GC2 | 
G dc2c DF2 | 
G A/ A/ F DC4 |]

@@@ Tune index: 9397
